src/assets/img/icons/duotone-icons/Weather/Night-rain.svg

<?xml version="1.0" encoding="UTF-8"?>
<svg width="24px" height="24px" viewBox="0 0 24 24" version="1.1" xmlns="http://www.w3.org/2000/svg" xmlns:xlink="http://www.w3.org/1999/xlink">
    <!-- Generator: Sketch 52.2 (67145) - http://www.bohemiancoding.com/sketch -->
    <title>Stockholm-icons / Weather / Night-rain</title>
    <desc>Created with Sketch.</desc>
    <g id="Stockholm-icons-/-Weather-/-Night-rain" stroke="none" stroke-width="1" fill="none" fill-rule="evenodd">
        <polygon id="Shape" points="0 0 24 0 24 24 0 24"></polygon>
        <path d="M17.2283644,2.20458594 C17.094799,3.04356724 17.1734919,3.92788295 17.4998362,4.77803892 C18.4842043,7.34240534 21.3510057,8.63004045 23.9186178,7.66962325 C23.6471598,9.37476707 22.4989388,10.8926507 20.7710836,11.5559121 C18.1930725,12.5455179 15.3009475,11.2578609 14.3113418,8.67984976 C13.321736,6.1018386 14.609393,3.20971365 17.1874041,2.22010788 C17.2010489,2.21487016 17.2147024,2.20969622 17.2283644,2.20458594 Z M6.5,22 C5.67157288,22 5,21.3284271 5,20.5 C5,19.9477153 5.5,19.1143819 6.5,18 C7.5,19.1143819 8,19.9477153 8,20.5 C8,21.3284271 7.32842712,22 6.5,22 Z M11.5,22 C10.6715729,22 10,21.3284271 10,20.5 C10,19.9477153 10.5,19.1143819 11.5,18 C12.5,19.1143819 13,19.9477153 13,20.5 C13,21.3284271 12.3284271,22 11.5,22 Z M16.5,22 C15.6715729,22 15,21.3284271 15,20.5 C15,19.9477153 15.5,19.1143819 16.5,18 C17.5,19.1143819 18,19.9477153 18,20.5 C18,21.3284271 17.3284271,22 16.5,22 Z" id="Combined-Shape" fill="#335EEA" opacity="0.3"></path>
        <path d="M5.74714567,16.0425758 C4.09410362,14.9740356 3,13.1147886 3,11 C3,7.6862915 5.6862915,5 9,5 C11.7957591,5 14.1449096,6.91215918 14.8109738,9.5 L17.25,9.5 C19.3210678,9.5 21,11.1789322 21,13.25 C21,15.3210678 19.3210678,17 17.25,17 L8.25,17 C7.28817895,17 6.41093178,16.6378962 5.74714567,16.0425758 Z" id="Combined-Shape" fill="#335EEA"></path>
    </g>
</svg>

<svg width="24" height="24" viewBox="0 0 24 24" xmlns="http://www.w3.org/2000/svg"><g fill="none" fill-rule="evenodd"><path d="M0 0h24v24H0z"/><path d="M17.228 2.205a5 5 0 006.69 5.465 5 5 0 11-6.69-5.465zM6.5 22A1.5 1.5 0 015 20.5c0-.552.5-1.386 1.5-2.5 1 1.114 1.5 1.948 1.5 2.5A1.5 1.5 0 016.5 22zm5 0a1.5 1.5 0 01-1.5-1.5c0-.552.5-1.386 1.5-2.5 1 1.114 1.5 1.948 1.5 2.5a1.5 1.5 0 01-1.5 1.5zm5 0a1.5 1.5 0 01-1.5-1.5c0-.552.5-1.386 1.5-2.5 1 1.114 1.5 1.948 1.5 2.5a1.5 1.5 0 01-1.5 1.5z" fill="#335EEA" opacity=".3"/><path d="M5.747 16.043A6 6 0 1114.811 9.5h2.439a3.75 3.75 0 010 7.5h-9c-.962 0-1.84-.362-2.503-.957z" fill="#335EEA"/></g></svg>
